icons/linear-new-textedit-office-slash-delete.svg

<svg xmlns="http://www.w3.org/2000/svg" width="32px" height="32px" viewBox="0 0 32 32" version="1.1">
    <title>linear-new-textedit-office-slash-delete</title>
    <g id="linear-new-textedit-office-slash-delete" stroke-width="1" fill-rule="evenodd">
        <path d="M5,17 C4.44771525,17 4,16.5522847 4,16 C4,15.4477153 4.44771525,15 5,15 L27,15 C27.5522847,15 28,15.4477153 28,16 C28,16.5522847 27.5522847,17 27,17 L22.4602942,17.0005516 C24.3117445,18.132104 25.3692983,19.2306632 25.9284767,20.6286093 C28.0994872,26.0561355 23.2592898,30 16.5,30 C10.8365449,30 6.62121401,26.9195659 6.01005051,22.6414214 C5.93194565,22.0946873 6.31184464,21.5881554 6.85857864,21.5100505 C7.40531265,21.4319456 7.91184464,21.8118446 7.98994949,22.3585786 C8.44933814,25.5742992 11.7687182,28 16.5,28 C22.058892,28 25.5764905,25.1338086 24.0715233,21.3713907 C23.4842268,19.9031495 21.7290913,18.66712 18.0933688,17.0004616 L5,17 Z M15.5,2 C20.7767035,2 24.3918792,4.67208632 24.9899495,8.85857864 C25.0680544,9.40531265 24.6881554,9.91184464 24.1414214,9.98994949 C23.5946873,10.0680544 23.0881554,9.68815536 23.0100505,9.14142136 C22.5629819,6.01194145 19.8409435,4 15.5,4 C10.8265439,4 7.80370787,6.62855306 8.93632918,9.64887656 C9.29857925,10.6148768 10.8204127,11.6204713 13.9047199,13.000124 L9.52739364,13.0011039 C8.20560332,12.1618425 7.4358819,11.3436863 7.06367082,10.3511234 C5.33153804,5.73210268 9.62345612,2 15.5,2 Z" id="&#24418;&#29366;" fill-rule="nonzero" />
    </g>
</svg>

<svg xmlns="http://www.w3.org/2000/svg" viewBox="0 0 32 32"><path fill="currentColor" d="M5 17a1 1 0 0 1 0-2h22a1 1 0 0 1 0 2h-4.54c1.852 1.132 2.91 2.23 3.468 3.629C28.1 26.056 23.26 30 16.5 30c-5.663 0-9.879-3.08-10.49-7.359a1 1 0 0 1 1.98-.282C8.45 25.574 11.769 28 16.5 28c5.559 0 9.076-2.866 7.572-6.629-.588-1.468-2.343-2.704-5.979-4.37zM15.5 2c5.277 0 8.892 2.672 9.49 6.859a1 1 0 1 1-1.98.282C22.563 6.011 19.84 4 15.5 4c-4.673 0-7.696 2.629-6.564 5.649.363.966 1.884 1.971 4.969 3.351l-4.378.001c-1.321-.84-2.091-1.657-2.463-2.65C5.332 5.732 9.624 2 15.5 2"/></svg>
